X:1
T:Ingrave, 86.76.76.76
T:Ingrave, 86.76.76.76
T:Traditional English Tune
T:Public Domain Courtesy of the Cyber Hymnal™
C:Traditional English Tune
Z:Public Domain
Z:Courtesy of the Cyber Hymnal™
%%score ( 1 2 ) ( 3 4 )
L:1/8
Q:1/4=110
M:none
K:D
V:1 treble 
V:2 treble 
V:3 bass 
V:4 bass 
V:1
 D[DF] | [DA]3 [DF] [Dd]2 [DB]2 | G4 [DF]2 D2 | (EF) (GF) D2 D2 | D6 [DG]2 | [DF]3 [DE] DE (FG) | %6
 (A3 B) [Cc]2 [Fd]2 | [Ee]2 E2 (EF) [D^G]2 | [CA]6 [EA]2 | [Ad]2 [Bd]2 (dc) (BA) | %10
 (G3 A) [DB]2 [Cc]2 | [DB]2 [CB]2 [DA]2 D2 | [CE]6 (DF) | [DA]3 [DF] (dc) (BA) | G3 z E [DF]2 D2 | %15
 (EF) (GF) D2 [B,D]2 | [A,D]6 |] %17
V:2
 D x | x8 | D2 C2 D2 x2 | D2 D2 D2 D2 | D6 x2 | x4 D2 D2 | E4 x4 | x2 E2 D2 x2 | x8 | x4 A2 F2 | %10
 D4 x4 | x6 D2 | x6 D2 | x4 D2 D2 | (D2 C2 x D2) x2 | D2 C2 D2 x2 | x6 |] %17
V:3
 [D,F,][D,F,] | [D,F,]3 [D,A,] [F,A,]2 [G,B,]2 | B,2 G,2 [D,A,]2 [F,A,]2 | %3
 [G,B,]2 [G,B,]2 [F,A,]2 [G,B,]2 | [D,F,]6 [D,B,]2 | [D,A,]3 [D,G,] (F,G,) (A,B,) | %6
 [C,A,]4 [F,A,]2 [D,A,]2 | [C,A,]2 A,2 (^G,A,) [E,B,]2 | [A,,A,]6 [G,C]2 | %9
 [F,D]2 [G,D]2 [F,D]2 [D,D]2 | B,4 [G,B,]2 A,2 | [G,B,]2 [E,G,]2 [F,A,]2 [B,,^G,]2 | %12
 [A,,A,]6 [B,,F,]2 | F,3 [D,A,] [F,A,]2 [G,B,]2 | ([E,B,]2 [A,,A,]2) [D,A,]2 [F,A,]2 x | %15
 [G,B,]2 A,2 [F,A,]2 [G,B,]2 | [D,F,]6 |] %17
V:4
 x2 | x8 | E,4 x4 | x8 | x8 | x4 D,2 D,2 | x8 | x2 (C,D,) E,2 x2 | x8 | x8 | (E,3 F,) A,2 x2 | x8 | %12
 x8 | F,3 x5 | x9 | x2 A,2 x4 | x6 |] %17

